X: 2180
T: Şevkıdil Peşrev
C: Seyyid Ahmet Ağa
O: Turkey
F: http://compmusic.upf.edu/node/140
N: sevkidil--pesrev--muhammes----seyyid_ahmed_aga
N: makam= sevkidil
N: form= pesrev
N: usul= muhammes = 32/4
M: 32/4
L: 1/16
K: C _1/4B ^f  
Q: 1/4=66
%%MIDI tuningsystem comma53
z4 g2 f2 g4 a2 b2  | g2 a2 f2 g2 e2 f2 d4  | \
w:   |   | 
d2 e2 d2 e2 f2 g2 e2 f2  | 
w:   | 
g4 a2 =b2 a2 g4 f2  | e2 f2 g4 z4 g2 f2  | \
w:   |   | 
g4 a2 b2 a4 g2 f2  | e2 =f2 e2 f2 a2 g2 f2 e2  | 
w:   |   | 
d4 e2 f2 e4 d4  | g6 f2 e2 f2 e2 d2  | \
w:   |   | 
e2 f2 g2 a2 f2 g2 e2 f2  | z2 d2 e2 f2 e3 d ^c2 d2  | 
w:   |   | 
^c2 d2 e2 d2 d6 z2  | d6 e2 d2 e2 d2 c2  | \
w:   |   | 
d2 e2 =f2 g2 a2 g2 f2 e2  | d4 c2 B2 A6 c2  | 
w:   |   | 
B2 A2 G2 F2 G4 A2 B2  | c6 d2 _7/8e4 f2 a2  | \
w:   |  TESLİM  | 
g4 f4 g2 a2 g2 f2  | g6 z2 d2 g2 f2 _7/8e2  | 
w:   |   | 
d2 c2 B2 c2 d2 f2 _7/8e2 d2  | c6 B2 c2 e2 d2 c2  | \
w:   |   | 
B4 A4 z2 c2 B2 A2  | G6 F2 G4 A4  | 
w:   |   | 
F4 G8 z4  | c6 d2 _7/8e4 f2 a2  | g4 f4 g2 a2 g2 f2  | \
w:   |  TESLİM  |   | 
g6 z2 d2 g2 f2 _7/8e2  | d2 c2 B2 c2 d2 f2 _7/8e2 d2  | 
w:   |   | 
c6 B2 c2 e2 d2 c2  | B4 A4 z2 c2 B2 A2  | \
w:   |   | 
G6 F2 G4 A4  | F4 G8 z4  | |


